X:1092
T:Somebody.
M:6/8
L:1/8
Q:3/8=104
I: ||
Z:Jack Campin * www.campin.me.uk * 2009
K:G
d|e2e e>fg|   d2d  d2c| B2B         B>^cd|     A2  A     A2
d|e2e e>fg|{e}d2d  d2c|(B>c)d       g2  B|({B}TA>G)A     G2
B|c3  A3  |   B2d  B2G| c3          A3   |     B2 (d/c/) G2
d|e2e e>fg|{e}d2d Hd2c|(B>c)d ({ef}Hg2) B|({B}TA>G)A     G2|]

